X:17003
T:Quaker, The
R:Polka
C:Trad.
O:England
Z:Paul Hardy's Session Tunebook 2022 (see www.paulhardy.net). Creative Commons cc by-nc-sa licenced.
M:2/2
L:1/8
Q:1/4=180
K:G
"G"B2B2AG FE|"D"E2D2D2DE|F2F2FE DF|"G"A2G2 G4|
"G"d2ed c2B2|"Am"A2E2E2c2|"G"BA GF "C"E2 "D"F2|"G"G4G4:|
K:D
|:"D"A2A2 "G"B2B2|"D"AG FG A2 BA|"A"GF EF G2AG|"D"FE DE F4|
"D"A2A2 "G"B2B2|"D"AG FG A2 BA|"A"GF EF GA Bc|"D"d4 d4:|

